Include/imtgui/Resources/Icons/SplitVertical.svg

<?xml version="1.0" encoding="UTF-8" standalone="no"?>
<!-- Generator: Adobe Illustrator 16.0.0, SVG Export Plug-In . SVG Version: 6.00 Build 0)  -->

<svg
   xmlns:dc="http://purl.org/dc/elements/1.1/"
   xmlns:cc="http://creativecommons.org/ns#"
   xmlns:rdf="http://www.w3.org/1999/02/22-rdf-syntax-ns#"
   xmlns:svg="http://www.w3.org/2000/svg"
   xmlns="http://www.w3.org/2000/svg"
   xmlns:sodipodi="http://sodipodi.sourceforge.net/DTD/sodipodi-0.dtd"
   xmlns:inkscape="http://www.inkscape.org/namespaces/inkscape"
   version="1.1"
   id="Capa_1"
   x="0px"
   y="0px"
   width="512"
   height="512"
   viewBox="0 0 512.00002 512.00002"
   xml:space="preserve"
   sodipodi:docname="SplitVertical.svg"
   inkscape:version="0.92.2 (5c3e80d, 2017-08-06)"><metadata
     id="metadata41"><rdf:RDF><cc:Work
         rdf:about=""><dc:format>image/svg+xml</dc:format><dc:type
           rdf:resource="http://purl.org/dc/dcmitype/StillImage" /><dc:title></dc:title></cc:Work></rdf:RDF></metadata><defs
     id="defs39" /><sodipodi:namedview
     pagecolor="#ffffff"
     bordercolor="#666666"
     borderopacity="1"
     objecttolerance="10"
     gridtolerance="10"
     guidetolerance="10"
     inkscape:pageopacity="0"
     inkscape:pageshadow="2"
     inkscape:window-width="1920"
     inkscape:window-height="1028"
     id="namedview37"
     showgrid="false"
     inkscape:zoom="0.50420134"
     inkscape:cx="-42.641696"
     inkscape:cy="234.03349"
     inkscape:window-x="-8"
     inkscape:window-y="-8"
     inkscape:window-maximized="1"
     inkscape:current-layer="Capa_1" /><g
     id="g4"
     transform="matrix(0.86003523,0,0,0.86003523,54.722515,54.722515)"
     style="stroke-width:1.16274309;fill:#335777;fill-opacity:1"><path
       d="M 431.38,0.225 H 36.685 C 16.458,0.225 0,16.674 0,36.898 v 394.268 c 0,20.221 16.458,36.677 36.685,36.677 H 431.38 c 20.232,0 36.688,-16.456 36.688,-36.677 V 36.898 C 468.062,16.668 451.606,0.225 431.38,0.225 Z m -24.861,41.744 c 8.678,0 15.711,7.04 15.711,15.72 0,8.683 -7.033,15.717 -15.711,15.717 -8.688,0 -15.723,-7.04 -15.723,-15.717 0,-8.68 7.034,-15.72 15.723,-15.72 z m -56.33,0 c 8.688,0 15.723,7.04 15.723,15.72 0,8.683 -7.034,15.717 -15.723,15.717 -8.684,0 -15.711,-7.04 -15.711,-15.717 10e-4,-8.68 7.035,-15.72 15.711,-15.72 z m 75.954,70.46 V 255.948 H 41.919 V 112.429 Z M 41.919,425.924 V 272.09 H 426.143 V 425.93 H 41.919 Z"
       id="path2"
       inkscape:connector-curvature="0"
       style="stroke-width:1.16274309;fill:#335777;fill-opacity:1" /></g><g
     id="g6"
     transform="translate(0,43.933014)" /><g
     id="g8"
     transform="translate(0,43.933014)" /><g
     id="g10"
     transform="translate(0,43.933014)" /><g
     id="g12"
     transform="translate(0,43.933014)" /><g
     id="g14"
     transform="translate(0,43.933014)" /><g
     id="g16"
     transform="translate(0,43.933014)" /><g
     id="g18"
     transform="translate(0,43.933014)" /><g
     id="g20"
     transform="translate(0,43.933014)" /><g
     id="g22"
     transform="translate(0,43.933014)" /><g
     id="g24"
     transform="translate(0,43.933014)" /><g
     id="g26"
     transform="translate(0,43.933014)" /><g
     id="g28"
     transform="translate(0,43.933014)" /><g
     id="g30"
     transform="translate(0,43.933014)" /><g
     id="g32"
     transform="translate(0,43.933014)" /><g
     id="g34"
     transform="translate(0,43.933014)" /></svg>

<?xml version="1.0" encoding="iso-8859-1"?>
<!-- Generator: Adobe Illustrator 16.0.0, SVG Export Plug-In . SVG Version: 6.00 Build 0)  -->
<!DOCTYPE svg PUBLIC "-//W3C//DTD SVG 1.1//EN" "http://www.w3.org/Graphics/SVG/1.1/DTD/svg11.dtd">
<svg version="1.1" id="Capa_1" xmlns="http://www.w3.org/2000/svg" xmlns:xlink="http://www.w3.org/1999/xlink" x="0px" y="0px"
	 width="468.067px" height="468.067px" viewBox="0 0 468.067 468.067" style="enable-background:new 0 0 468.067 468.067;"
	 xml:space="preserve">
<g>
	<path d="M431.38,0.225H36.685C16.458,0.225,0,16.674,0,36.898v394.268c0,20.221,16.458,36.677,36.685,36.677H431.38
		c20.232,0,36.688-16.456,36.688-36.677V36.898C468.062,16.668,451.606,0.225,431.38,0.225z M406.519,41.969
		c8.678,0,15.711,7.04,15.711,15.72c0,8.683-7.033,15.717-15.711,15.717c-8.688,0-15.723-7.04-15.723-15.717
		C390.796,49.009,397.83,41.969,406.519,41.969z M350.189,41.969c8.688,0,15.723,7.04,15.723,15.72
		c0,8.683-7.034,15.717-15.723,15.717c-8.684,0-15.711-7.04-15.711-15.717C334.479,49.009,341.513,41.969,350.189,41.969z
		 M426.143,112.429v143.519H41.919V112.429H426.143z M41.919,425.924V272.09h384.224v153.84H41.919V425.924z"/>
</g>
<g>
</g>
<g>
</g>
<g>
</g>
<g>
</g>
<g>
</g>
<g>
</g>
<g>
</g>
<g>
</g>
<g>
</g>
<g>
</g>
<g>
</g>
<g>
</g>
<g>
</g>
<g>
</g>
<g>
</g>
</svg>
